src/components/sections/images/apple-icon.svg

<svg width="32" height="32" viewBox="0 0 32 32" fill="none" xmlns="http://www.w3.org/2000/svg">
<path d="M21.4926 1.3335C21.6008 5.23368 18.8115 7.93945 16.0255 7.76976C15.5664 4.65727 18.8112 1.3335 21.4926 1.3335Z" fill="#F6F6F9"/>
<path d="M4 17.1911C4 21.7296 7.61121 30.6415 11.9769 30.6666H12.0054C13.0907 30.6666 14.0476 30.3095 14.8933 29.9939L14.9007 29.9911C15.5209 29.7586 16.1067 29.5396 16.57 29.5396C17.4839 29.5396 18.037 29.7745 18.6781 30.0473C19.3117 30.3167 20.0303 30.6222 21.0464 30.6222C25.1998 30.6222 28.0599 22.9273 28.0599 22.5689C28.0599 22.021 27.6427 21.77 27.2388 21.5271L27.2366 21.5257L27.2354 21.525C26.3186 20.9734 24.4126 19.8267 24.4126 16.847C24.4126 14.3305 26.0966 13.0599 27.0198 12.3632L27.6663 11.8754L27.2173 11.2006C25.3005 8.32208 22.1122 8.09131 21.0607 8.09131H21.0523C19.6441 8.09131 18.4348 8.57216 17.463 8.95905L17.4434 8.96681C16.9926 9.1453 16.488 9.34508 16.2721 9.34508C15.9062 9.34508 15.2482 9.10336 14.6121 8.86921C13.7023 8.53354 12.6709 8.15421 11.705 8.15421C9.56159 8.15421 4 9.77729 4 17.1911Z" fill="#F6F6F9"/>
</svg>

<svg width="32" height="32" fill="none" xmlns="http://www.w3.org/2000/svg"><path d="M21.493 1.333c.108 3.9-2.681 6.606-5.467 6.437-.46-3.113 2.785-6.436 5.467-6.436zM4 17.191c0 4.539 3.611 13.45 7.977 13.476h.028c1.086 0 2.043-.358 2.888-.673l.008-.003c.62-.232 1.206-.451 1.669-.451.914 0 1.467.235 2.108.507.634.27 1.352.575 2.368.575 4.154 0 7.014-7.695 7.014-8.053 0-.548-.417-.799-.821-1.042l-.002-.001-.002-.001c-.916-.552-2.822-1.698-2.822-4.678 0-2.517 1.684-3.787 2.607-4.484l.646-.488-.449-.674c-1.916-2.879-5.105-3.11-6.156-3.11h-.009c-1.408 0-2.617.481-3.589.868l-.02.008c-.45.178-.955.378-1.17.378-.367 0-1.025-.242-1.66-.476-.91-.335-1.942-.715-2.908-.715C9.562 8.154 4 9.777 4 17.191z" fill="#F6F6F9"/></svg>
